icons/2_Variations/Privacy bg.var.svg

<svg xmlns="http://www.w3.org/2000/svg" width="1024" height="1024" fill="none">
   <g clip-path="url(#a)">
      <path fill="#FF837D" d="M512 1024c282.77 0 512-229.23 512-512S794.77 0 512 0 0 229.23 0 512s229.23 512 512 512Z"/>
      <path fill="#fff" d="M848.3 427.9v168.2H175.7V427.9h672.6Zm-169.8 40.4c-5.8 0-11.3.9-16.6 2.7-5.2 1.8-10.1 4.5-14.4 8-4.3 3.5-7.7 8.2-10.4 14.1-2.6 5.9-3.9 12.5-3.9 19.9 0 7.1 1.3 13.4 3.9 19 2.6 5.6 6.1 10.1 10.5 13.5 4.4 3.4 9.3 6 14.5 7.7 5.3 1.8 10.8 2.6 16.6 2.6 8.8 0 17-1.8 24.4-5.4v-17.7c-5.1 4.7-12.4 7-21.7 7-3.8 0-7.4-.5-10.9-1.6-3.4-1-6.6-2.7-9.5-4.8-2.9-2.1-5.1-4.9-6.8-8.4-1.7-3.5-2.5-7.5-2.5-12 0-9.5 2.9-16.6 8.7-21.5 5.8-4.9 12.8-7.3 21-7.3 8.3 0 15.4 2.2 21.1 6.6v-17.2c-7.2-3.4-15.2-5.2-24-5.2ZM266.3 470h-31.8v84.3h18.1v-27.7h13.7c24.2 0 36.4-9.4 36.4-28.3S290.5 470 266.3 470Zm91.5 0h-34.7v84.3h18.1v-29.5h13.2l22.8 29.5H398l-25.2-31.8c12.3-3.9 18.4-12.3 18.4-25 0-5.1-.9-9.5-2.8-13.2-1.9-3.7-4.5-6.5-7.8-8.5s-6.9-3.5-10.6-4.3c-3.7-1.1-7.8-1.5-12.2-1.5Zm76.9 0h-18.1v84.3h18.1V470Zm39.4 0h-19.5l32.7 84.3h18.5l32.9-84.3h-19.5l-22.6 63.1-22.5-63.1Zm117.2 0h-19.5l-34.4 84.3H556l6.3-15.8h38.5l6.1 15.8h18.7L591.3 470Zm145 0H716l33 54.4v29.9h17.9v-29.9l32.9-54.4h-20.3l-21.6 37.8-21.6-37.8Zm-154.8 16.7c.4 2.2 1 4.4 1.8 6.6l11.8 30.2h-27.2l11.7-30.2c.8-1.9 1.4-4.1 1.9-6.6Zm-314.3-.8c11.4 0 17.1 4.1 17.1 12.4s-5.7 12.4-17.1 12.4h-14.6v-24.8h14.6Zm91.5 0c4.2 0 7.6 1 10.2 2.9 2.6 1.9 4 4.9 4 9 0 4-1.3 7-4 9s-6.1 3-10.2 3h-17.5V486h17.5v-.1Z"/>
   </g>
   <defs>
      <clipPath id="a">
         <path fill="#fff" d="M0 0h1024v1024H0z"/>
      </clipPath>
   </defs>
</svg>

<svg width="1024" height="1024" viewBox="0 0 1024 1024" fill="none" xmlns="http://www.w3.org/2000/svg">
<g clip-path="url(#clip0_3_227)">
<path d="M512 1024C794.77 1024 1024 794.77 1024 512C1024 229.23 794.77 0 512 0C229.23 0 0 229.23 0 512C0 794.77 229.23 1024 512 1024Z" fill="#FF837D"/>
<path d="M848.3 427.9V596.1H175.7V427.9H848.3ZM678.5 468.3C672.7 468.3 667.2 469.2 661.9 471C656.7 472.8 651.8 475.5 647.5 479C643.2 482.5 639.8 487.2 637.1 493.1C634.5 499 633.2 505.6 633.2 513C633.2 520.1 634.5 526.4 637.1 532C639.7 537.6 643.2 542.1 647.6 545.5C652 548.9 656.9 551.5 662.1 553.2C667.4 555 672.9 555.8 678.7 555.8C687.5 555.8 695.7 554 703.1 550.4V532.7C698 537.4 690.7 539.7 681.4 539.7C677.6 539.7 674 539.2 670.5 538.1C667.1 537.1 663.9 535.4 661 533.3C658.1 531.2 655.9 528.4 654.2 524.9C652.5 521.4 651.7 517.4 651.7 512.9C651.7 503.4 654.6 496.3 660.4 491.4C666.2 486.5 673.2 484.1 681.4 484.1C689.7 484.1 696.8 486.3 702.5 490.7V473.5C695.3 470.1 687.3 468.3 678.5 468.3ZM266.3 470H234.5V554.3H252.6V526.6H266.3C290.5 526.6 302.7 517.2 302.7 498.3C302.7 479.4 290.5 470 266.3 470ZM357.8 470H323.1V554.3H341.2V524.8H354.4L377.2 554.3H398L372.8 522.5C385.1 518.6 391.2 510.2 391.2 497.5C391.2 492.4 390.3 488 388.4 484.3C386.5 480.6 383.9 477.8 380.6 475.8C377.3 473.8 373.7 472.3 370 471.5C366.3 470.4 362.2 470 357.8 470ZM434.7 470H416.6V554.3H434.7V470ZM474.1 470H454.6L487.3 554.3H505.8L538.7 470H519.2L496.6 533.1L474.1 470ZM591.3 470H571.8L537.4 554.3H556L562.3 538.5H600.8L606.9 554.3H625.6L591.3 470ZM736.3 470H716L749 524.4V554.3H766.9V524.4L799.8 470H779.5L757.9 507.8L736.3 470ZM581.5 486.7C581.9 488.9 582.5 491.1 583.3 493.3L595.1 523.5H567.9L579.6 493.3C580.4 491.4 581 489.2 581.5 486.7ZM267.2 485.9C278.6 485.9 284.3 490 284.3 498.3C284.3 506.6 278.6 510.7 267.2 510.7H252.6V485.9H267.2ZM358.7 485.9C362.9 485.9 366.3 486.9 368.9 488.8C371.5 490.7 372.9 493.7 372.9 497.8C372.9 501.8 371.6 504.8 368.9 506.8C366.2 508.8 362.8 509.8 358.7 509.8H341.2V486H358.7V485.9Z" fill="white"/>
</g>
<defs>
<clipPath id="clip0_3_227">
<rect width="1024" height="1024" fill="white"/>
</clipPath>
</defs>
</svg>
